src/assets/indicator.svg

<?xml version="1.0" encoding="UTF-8"?>
<svg width="40px" height="40px" viewBox="0 0 40 40" version="1.1" xmlns="http://www.w3.org/2000/svg" xmlns:xlink="http://www.w3.org/1999/xlink">
    <!-- Generator: Sketch 53 (72520) - https://sketchapp.com -->
    <title>Group 10</title>
    <desc>Created with Sketch.</desc>
    <g id="Page-1" stroke="none" stroke-width="1" fill="none" fill-rule="evenodd">
        <g id="首页" transform="translate(-168.000000, -541.000000)">
            <g id="Group-10" transform="translate(168.000000, 541.000000)">
                <rect id="Rectangle-2" fill="#6B42CD" x="0" y="0" width="40" height="40" rx="12"></rect>
                <path d="M29.4852814,29.363961 C31.6568542,27.7352814 32,25.4852814 32,23 C32,18.0294373 26.627417,12 20,12 C13.372583,12 8,18.0294373 8,23 C8,25.4852814 8.34314575,27.7352814 10.5147186,29.363961 L29.4852814,29.363961 Z" id="Oval-2" fill="#FFFFFF"></path>
                <path d="M27.5411235,15.4548982 C29.6402084,17.3238437 30.9533638,19.9901636 30.9533638,22.9493619 C30.9533638,25.0084697 30.3176513,26.9254579 29.2231586,28.5316512 L29.2394491,28.5406413 L30.4881119,29.3175807 L30.5069209,29.328898 C31.7944451,27.4506117 32.4834604,25.2266223 32.4835879,22.9493619 C32.4835879,19.5673754 30.9836176,16.5207311 28.5841944,14.3841876 L27.5411235,15.4548982 Z M20.2417952,12.7086241 C14.3257576,12.7086241 9.53022665,17.2937175 9.53022665,22.9493619 C9.52898334,24.8753402 10.0924884,26.7593648 11.150989,28.3683955 C11.1831237,28.4035269 11.2114966,28.4417506 11.2359164,28.4825884 C10.3411179,28.97124 9.88953177,29.2060231 9.88115804,29.1869378 C8.65289818,27.3386503 7.99850422,25.1684737 8.00000257,22.9493619 C8.00000257,16.4856316 13.481074,11.2454111 20.2417952,11.2454111 C21.4929447,11.2454111 22.7007697,11.4249893 23.8375987,11.7587057 L23.3887967,13.1575536 C22.3660332,12.8586817 21.3065124,12.7075084 20.2417952,12.7086241 Z" id="Fill-1" fill="#FFFFFF"></path>
                <path d="M18.9302338,21.9854801 C17.8203113,23.4194595 17.1960436,24.4967691 18.7637582,25.4018648 C20.3520032,26.3182777 20.5224957,25.666211 21.7157198,23.4219461 C22.9081151,21.1775537 25.792262,15.2626953 26.8647461,12.4567871 C27.9372302,9.65087891 27.3391363,10.8699307 26.3778985,12.1441648 C23.9914381,15.3076992 19.7220962,20.9632677 18.9302338,21.9854801 Z M17.3486502,20.7613096 C17.9915033,19.9314526 20.9268909,16.0491162 24.7812501,10.9397088 C24.731125,11.0061556 25.7820788,9.5025967 26.1016703,9.23558951 C26.254654,9.11101451 26.254654,9.11101451 26.5685333,8.93923164 C27.0491833,8.73675921 27.0491833,8.73675921 28.0249418,8.84567308 C29.0000435,9.40694631 29.0000435,9.40694631 29.3128915,10.0828576 C29.4346699,10.5556201 29.4346699,10.5556201 29.435365,10.8085601 C29.4323958,11.1094784 29.3844922,11.3175996 29.2886678,11.6305562 C29.1926937,11.9440016 29.0222308,12.413963 28.7329304,13.1708511 C27.7673474,15.697077 25.0418763,21.4240791 23.4816387,24.3608446 C23.5177511,24.292923 22.9636745,25.3456954 22.8285407,25.5903104 C22.57025,26.0578602 22.3584643,26.3912263 22.1087706,26.6896811 C20.9259255,28.103516 19.4355772,28.0985505 17.7637787,27.1339275 C16.3407899,26.312387 15.6093821,25.0443289 15.8731455,23.5453946 C16.0362403,22.6185478 16.4680233,21.8990474 17.3486502,20.7613096 Z" id="Path" fill="#6B42CD" fill-rule="nonzero"></path>
            </g>
        </g>
    </g>
</svg>

<svg width="40" height="40" xmlns="http://www.w3.org/2000/svg"><g fill="none" fill-rule="evenodd"><rect fill="#6B42CD" width="40" height="40" rx="12"/><path d="M29.485 29.364C31.657 27.735 32 25.485 32 23c0-4.97-5.373-11-12-11S8 18.03 8 23c0 2.485.343 4.735 2.515 6.364h18.97z" fill="#FFF"/><path d="M27.541 15.455c2.1 1.869 3.412 4.535 3.412 7.494 0 2.06-.635 3.976-1.73 5.583l.016.009 1.25.777.018.01a11.284 11.284 0 0 0 1.977-6.379c0-3.382-1.5-6.428-3.9-8.565l-1.043 1.07zm-7.3-2.746c-5.915 0-10.71 4.585-10.71 10.24a9.848 9.848 0 0 0 1.62 5.42c.032.035.06.073.085.114-.895.488-1.346.723-1.355.704A11.256 11.256 0 0 1 8 22.949c0-6.463 5.481-11.704 12.242-11.704 1.25 0 2.459.18 3.596.514l-.45 1.399a11.177 11.177 0 0 0-3.146-.45z" fill="#FFF"/><path d="M18.93 21.985c-1.11 1.434-1.734 2.512-.166 3.417 1.588.916 1.758.264 2.952-1.98 1.192-2.244 4.076-8.16 5.149-10.965 1.072-2.806.474-1.587-.487-.313-2.387 3.164-6.656 8.82-7.448 9.841zm-1.581-1.224c.643-.83 3.578-4.712 7.432-9.821-.05.066 1.001-1.437 1.32-1.704.154-.125.154-.125.468-.297.48-.202.48-.202 1.456-.093.975.56.975.56 1.288 1.237.122.473.122.473.122.726-.003.3-.05.509-.146.822a27.12 27.12 0 0 1-.556 1.54c-.966 2.526-3.691 8.253-5.251 11.19.036-.068-.518.985-.653 1.23-.259.467-.47.8-.72 1.099-1.183 1.414-2.673 1.409-4.345.444-1.423-.822-2.155-2.09-1.89-3.589.162-.926.594-1.646 1.475-2.784z" fill="#6B42CD" fill-rule="nonzero"/></g></svg>
